Suru++-Ubuntu/apps/scalable/fusion-icon.svg

<svg width="256" height="256" version="1.1" viewBox="0 0 67.73 67.73" xmlns="http://www.w3.org/2000/svg" xmlns:xlink="http://www.w3.org/1999/xlink">
 <defs>
  <linearGradient id="linearGradient1108" x1="296" x2="296" y1="-212" y2="236" gradientUnits="userSpaceOnUse">
   <stop style="stop-color:#ffffff" offset="0"/>
   <stop style="stop-color:#ffffff;stop-opacity:.09803922" offset=".125"/>
   <stop style="stop-color:#000000;stop-opacity:.09803922" offset=".925"/>
   <stop style="stop-color:#000000;stop-opacity:.49803922" offset="1"/>
  </linearGradient>
  <clipPath id="clipPath1082-3-361">
   <path d="M 361.9375,-212 C 507.2348,-212 528,-191.28677 528,-46.125 V 70.125 C 528,215.28618 507.2348,236 361.9375,236 H 214.0625 C 68.7652,236 48,215.28618 48,70.125 V -46.125 C 48,-191.28677 68.7652,-212 214.0625,-212 Z" style="fill:#8c59d9"/>
  </clipPath>
  <filter id="filter4569" x="-.01" y="-.01" width="1.023" height="1.025" style="color-interpolation-filters:sRGB">
   <feGaussianBlur stdDeviation="1.16"/>
  </filter>
  <filter id="filter939" x="-.02" y="-.03" width="1.046" height="1.05" style="color-interpolation-filters:sRGB">
   <feGaussianBlur stdDeviation="2.32"/>
  </filter>
  <linearGradient id="linearGradient954" x1="7.5" x2="64.112" y1="230.789" y2="294.501" gradientTransform="matrix(1.0193681,0,0,1.0193681,0,-5.7113166)" gradientUnits="userSpaceOnUse">
   <stop style="stop-color:#1c1c1c" offset="0"/>
   <stop style="stop-color:#555555" offset="1"/>
  </linearGradient>
  <filter id="filter1359" width="1.194" height="1.19" style="color-interpolation-filters:sRGB">
   <feGaussianBlur stdDeviation=".499"/>
  </filter>
 </defs>
 <g transform="translate(0,-229.26666)">
  <path transform="matrix(.26970779 0 0 .26970779 -1.9098094e-8 231.46531)" d="m162.53675 5.5680001c72.64865 0 83.03125 10.356615 83.03125 82.937505v58.125005c0 72.58059-10.3826 82.9375-83.03125 82.9375h-73.937496c-72.648654 0-83.031254-10.35691-83.031254-82.9375v-58.125005c0-72.58089 10.3826-82.937505 83.031254-82.937505z" style="filter:url(#filter939);opacity:.2"/>
  <path d="m43.837429 232.42763c19.593907 0 22.394176 2.79326 22.394176 22.36889v15.67677c0 19.57555-2.800269 22.36889-22.394176 22.36889h-19.941519c-19.593909 0-22.394177-2.79334-22.394177-22.36889v-15.67677c0-19.57563 2.8002682-22.36889 22.394177-22.36889z" style="fill:none;opacity:.1;stroke-linecap:round;stroke-linejoin:round;stroke-width:1.0788311;stroke:#000000"/>
  <path transform="matrix(.26970779 0 0 .26970779 -1.9098094e-8 231.46531)" d="m162.53675 3.5680001c72.64865 0 83.03125 10.356615 83.03125 82.937505v58.125005c0 72.58059-10.3826 82.9375-83.03125 82.9375h-73.937496c-72.648654 0-83.031254-10.35691-83.031254-82.9375v-58.125005c0-72.58089 10.3826-82.937505 83.031254-82.937505z" style="filter:url(#filter4569);opacity:.1"/>
  <path d="m43.837427 232.42763c19.593907 0 22.394175 2.79326 22.394175 22.36889v15.67677c0 19.57555-2.800268 22.36889-22.394175 22.36889h-19.94152c-19.593907 0-22.394176-2.79334-22.394176-22.36889v-15.67677c0-19.57563 2.8002682-22.36889 22.394176-22.36889z" style="fill:url(#linearGradient954)"/>
  <g transform="translate(-.75317894)" style="fill:#cf1a1a">
   <path transform="matrix(.26458333 0 0 .26458333 .75317894 229.26666)" d="m76.947266 239.96484c4.414053 0.11108 8.397419 0.32032 13.367187 0.32032h75.371097c9.25696 0 17.52167-0.16447 24.89843-0.59766 3.68838-0.21659 7.15505-0.49967 10.41211-0.86328 3.25707-0.36362 6.30468-0.8073 9.15625-1.34375 0.13605-0.02559 0.24571-0.06383 0.38086-0.08985 18.00562-37.36234 14.7987-67.74775-0.13867-90.21874-16.27414-24.48201-45.72908-39.67661-74.94726-45.9668-0.22043-0.04195-0.44951-0.04195-0.66993 0-0.66973 0.12812-1.2023 0.68527-1.33593 1.36914-0.13365 0.68455 0.15849 1.35801 0.72851 1.74023 14.99465 9.72254 22.74494 21.59824 24.96289 34.39844 2.21795 12.80028-1.11955 26.69214-8.80664 40.30664-13.55128 24.00042-40.66235 46.93885-73.378904 60.94531z" style="fill-rule:evenodd;fill:#cf1a1a;opacity:.75"/>
   <path transform="matrix(.26458333 0 0 .26458333 .75317894 229.26666)" d="m90.314453 11.947266c-9.256964 0-17.521676 0.164477-24.898437 0.597656-1.636278 0.096085-3.069164 0.259206-4.619141 0.382812-16.294536 19.357389-24.712503 37.205613-27.083984 53.320313-2.455654 16.686803 1.586617 31.469312 9.658203 43.976563 16.143152 25.01461 48.131585 41.03801 77.376956 47.33398 0.80114 0.12284 1.57943-0.35015 1.88281-1.11914 0.30338-0.76932 0.05296-1.6341-0.60742-2.11523-14.99891-9.72525-22.974527-21.38049-25.994143-33.89844-3.019631-12.51779-1.011165-26.012567 4.494143-39.373046 11.01066-26.720995 36.05481-52.638655 61.40429-67.550781 0.55963-0.320126 0.90571-0.921654 0.91016-1.554687h-72.523437z" style="fill-rule:evenodd;fill:#cf1a1a;opacity:.75"/>
   <path d="m39.882916 268.89569a7.5438417 4.5495463 46.463895 1 1-10.538988-10.79323 7.5438417 4.5495463 46.463895 1 1 10.538988 10.79323z" style="filter:url(#filter1359);opacity:.3"/>
   <path d="m39.882916 268.89569a7.5438417 4.5495463 46.463895 1 1-10.538988-10.79323 7.5438417 4.5495463 46.463895 1 1 10.538988 10.79323z" style="fill:#cf1a1a"/>
  </g>
  <path transform="matrix(.1348539 0 0 .1348539 -4.9712559 261.01666)" d="M 361.9375,-212 C 507.2348,-212 528,-191.28677 528,-46.125 V 70.125 C 528,215.28618 507.2348,236 361.9375,236 H 214.0625 C 68.7652,236 48,215.28618 48,70.125 V -46.125 C 48,-191.28677 68.7652,-212 214.0625,-212 Z" clip-path="url(#clipPath1082-3-361)" style="fill:none;opacity:.4;stroke-linecap:round;stroke-linejoin:round;stroke-width:8;stroke:url(#linearGradient1108)"/>
  <path d="m23.895907 292.84218c-19.593907 0-22.394176-2.79326-22.394176-22.36889v-7.83838h64.729871v7.83838c0 19.57563-2.800268 22.36889-22.394175 22.36889z" style="fill:#ffffff;opacity:.1"/>
  <path d="m33.866666 232.42763v60.41455h9.970761c19.593907 0 22.394175-2.79334 22.394175-22.36889v-15.67677c0-19.57563-2.800268-22.36889-22.394175-22.36889z" style="fill:#ffffff;opacity:.1"/>
 </g>
</svg>

<svg xmlns="http://www.w3.org/2000/svg" xmlns:xlink="http://www.w3.org/1999/xlink" width="256" height="256" version="1.1" viewBox="0 0 67.73 67.73">
 <defs>
  <linearGradient id="linearGradient1304">
   <stop style="stop-color:#1c1c1c" offset="0"/>
   <stop style="stop-color:#555555" offset="1"/>
  </linearGradient>
  <linearGradient id="linearGradient1108" x1="296" x2="296" y1="-212" y2="236" gradientUnits="userSpaceOnUse" xlink:href="#linearGradient1013"/>
  <linearGradient id="linearGradient1013">
   <stop style="stop-color:#ffffff" offset="0"/>
   <stop offset=".125" style="stop-color:#ffffff;stop-opacity:0.09803922"/>
   <stop offset=".925" style="stop-color:#000000;stop-opacity:0.09803922"/>
   <stop style="stop-color:#000000;stop-opacity:0.49803922" offset="1"/>
  </linearGradient>
  <clipPath id="clipPath1082-3-361" clipPathUnits="userSpaceOnUse">
   <path style="fill:#8c59d9" d="M 361.9375,-212 C 507.2348,-212 528,-191.28677 528,-46.125 V 70.125 C 528,215.28618 507.2348,236 361.9375,236 H 214.0625 C 68.7652,236 48,215.28618 48,70.125 V -46.125 C 48,-191.28677 68.7652,-212 214.0625,-212 Z"/>
  </clipPath>
  <filter id="filter4569" width="1.023" height="1.025" x="-.01" y="-.01" style="color-interpolation-filters:sRGB">
   <feGaussianBlur stdDeviation="1.16"/>
  </filter>
  <filter id="filter939" width="1.046" height="1.05" x="-.02" y="-.03" style="color-interpolation-filters:sRGB">
   <feGaussianBlur stdDeviation="2.32"/>
  </filter>
  <linearGradient id="linearGradient954" x1="7.5" x2="64.112" y1="230.789" y2="294.501" gradientTransform="matrix(1.0193681,0,0,1.0193681,0,-5.7113166)" gradientUnits="userSpaceOnUse" xlink:href="#linearGradient1304"/>
  <filter id="filter1359" width="1.194" height="1.19" x="-.1" y="-.1" style="color-interpolation-filters:sRGB">
   <feGaussianBlur stdDeviation=".499"/>
  </filter>
 </defs>
 <g transform="translate(0,-229.26666)">
  <path d="m 162.53675,5.5680001 c 72.64865,0 83.03125,10.3566149 83.03125,82.9375049 v 58.125005 c 0,72.58059 -10.3826,82.9375 -83.03125,82.9375 H 88.599254 C 15.9506,229.56801 5.568,219.2111 5.568,146.63051 V 88.505505 c 0,-72.58089 10.3826,-82.9375049 83.031254,-82.9375049 z" transform="matrix(0.26970779,0,0,0.26970779,-1.9098094e-8,231.46531)" style="opacity:0.2;filter:url(#filter939)"/>
  <path style="opacity:0.1;fill:none;stroke:#000000;stroke-width:1.07883108;stroke-linecap:round;stroke-linejoin:round" d="m 43.837429,232.42763 c 19.593907,0 22.394176,2.79326 22.394176,22.36889 v 15.67677 c 0,19.57555 -2.800269,22.36889 -22.394176,22.36889 H 23.89591 c -19.5939088,0 -22.394177,-2.79334 -22.394177,-22.36889 v -15.67677 c 0,-19.57563 2.8002682,-22.36889 22.394177,-22.36889 z"/>
  <path style="opacity:0.1;filter:url(#filter4569)" d="m 162.53675,3.5680001 c 72.64865,0 83.03125,10.3566149 83.03125,82.9375049 v 58.125005 c 0,72.58059 -10.3826,82.9375 -83.03125,82.9375 H 88.599254 C 15.9506,227.56801 5.568,217.2111 5.568,144.63051 V 86.505505 c 0,-72.58089 10.3826,-82.9375049 83.031254,-82.9375049 z" transform="matrix(0.26970779,0,0,0.26970779,-1.9098094e-8,231.46531)"/>
  <path d="m 43.837427,232.42763 c 19.593907,0 22.394175,2.79326 22.394175,22.36889 v 15.67677 c 0,19.57555 -2.800268,22.36889 -22.394175,22.36889 h -19.94152 c -19.5939074,0 -22.3941756,-2.79334 -22.3941756,-22.36889 v -15.67677 c 0,-19.57563 2.8002682,-22.36889 22.3941756,-22.36889 z" style="fill:url(#linearGradient954)"/>
  <g style="fill:#cf1a1a" transform="translate(-0.75317894)">
   <path d="M 76.947266 239.96484 C 81.361319 240.07592 85.344685 240.28516 90.314453 240.28516 L 165.68555 240.28516 C 174.94251 240.28516 183.20722 240.12069 190.58398 239.6875 C 194.27236 239.47091 197.73903 239.18783 200.99609 238.82422 C 204.25316 238.4606 207.30077 238.01692 210.15234 237.48047 C 210.28839 237.45488 210.39805 237.41664 210.5332 237.39062 C 228.53882 200.02828 225.3319 169.64287 210.39453 147.17188 C 194.12039 122.68987 164.66545 107.49527 135.44727 101.20508 C 135.22684 101.16313 134.99776 101.16313 134.77734 101.20508 C 134.10761 101.3332 133.57504 101.89035 133.44141 102.57422 C 133.30776 103.25877 133.5999 103.93223 134.16992 104.31445 C 149.16457 114.03699 156.91486 125.91269 159.13281 138.71289 C 161.35076 151.51317 158.01326 165.40503 150.32617 179.01953 C 136.77489 203.01995 109.66382 225.95838 76.947266 239.96484 z" transform="matrix(0.26458333,0,0,0.26458333,0.75317894,229.26666)" style="fill:#cf1a1a;fill-rule:evenodd;opacity:0.75"/>
   <path d="M 90.314453 11.947266 C 81.057489 11.947266 72.792777 12.111743 65.416016 12.544922 C 63.779738 12.641007 62.346852 12.804128 60.796875 12.927734 C 44.502339 32.285123 36.084372 50.133347 33.712891 66.248047 C 31.257237 82.93485 35.299508 97.717359 43.371094 110.22461 C 59.514246 135.23922 91.502679 151.26262 120.74805 157.55859 C 121.54919 157.68143 122.32748 157.20844 122.63086 156.43945 C 122.93424 155.67013 122.68382 154.80535 122.02344 154.32422 C 107.02453 144.59897 99.048913 132.94373 96.029297 120.42578 C 93.009666 107.90799 95.018132 94.413213 100.52344 81.052734 C 111.5341 54.331739 136.57825 28.414079 161.92773 13.501953 C 162.48736 13.181827 162.83344 12.580299 162.83789 11.947266 L 90.314453 11.947266 z" transform="matrix(0.26458333,0,0,0.26458333,0.75317894,229.26666)" style="fill:#cf1a1a;fill-rule:evenodd;opacity:0.75"/>
   <path style="opacity:0.3;filter:url(#filter1359)" d="M 39.882916,268.89569 A 7.5438417,4.5495463 46.463895 1 1 29.343928,258.10246 7.5438417,4.5495463 46.463895 1 1 39.882916,268.89569 Z"/>
   <path d="M 39.882916,268.89569 A 7.5438417,4.5495463 46.463895 1 1 29.343928,258.10246 7.5438417,4.5495463 46.463895 1 1 39.882916,268.89569 Z" style="fill:#cf1a1a"/>
  </g>
  <path style="opacity:0.4;fill:none;stroke:url(#linearGradient1108);stroke-width:8;stroke-linecap:round;stroke-linejoin:round" d="M 361.9375,-212 C 507.2348,-212 528,-191.28677 528,-46.125 V 70.125 C 528,215.28618 507.2348,236 361.9375,236 H 214.0625 C 68.7652,236 48,215.28618 48,70.125 V -46.125 C 48,-191.28677 68.7652,-212 214.0625,-212 Z" clip-path="url(#clipPath1082-3-361)" transform="matrix(0.1348539,0,0,0.1348539,-4.9712559,261.01666)"/>
  <path d="m 23.895907,292.84218 c -19.5939074,0 -22.3941756,-2.79326 -22.3941756,-22.36889 v -7.83838 H 66.231602 v 7.83838 c 0,19.57563 -2.800268,22.36889 -22.394175,22.36889 z" style="opacity:0.1;fill:#ffffff"/>
  <path d="m 33.866666,232.42763 v 60.41455 h 9.970761 c 19.593907,0 22.394175,-2.79334 22.394175,-22.36889 v -15.67677 c 0,-19.57563 -2.800268,-22.36889 -22.394175,-22.36889 z" style="opacity:0.1;fill:#ffffff"/>
 </g>
</svg>
